X: 31
T: Sheokuren zaiwai shui xinteng
%%abc-version 2.0
%%abcx-abcm2ps-target-version 5.9.1 (29 Sep 2008)
%%abc-creator hum2abc beta
%%abcx-conversion-date 2013/10/02 07:52:29
%%abc-edited-by Helmut Schaffrath
%%humdrum-veritas 1315267029
%%humdrum-veritas-data 763790448
%%continueall 1
%%barnumbers 0
L: 1/16
M: 2/4
K: Bb
d'2d'4d' c' [I:setbarnb 1]| 
b gf'4d'2 | 
c'2 b g b2 d' f' | 
b8 | 
b2d'4d' c' | 
b gf'4d' d' | 
c'2 b g b2 d' f' | 
b2 b gf4 |]  



